X: 5
M: 12/8
L: 1/8
K: Bm
V: 1
[|\
dcB AGF BAG FED | FGA Bcd egf edc |\
dcB AGF BAG FED | FGA Bgf edc d3 |]
[|\
V: 2 clef=bass middle=d
[|\
d3 fed g2b agf | d2f g2f e2d a3 |\
c'3 d3 g2b agf | d2f g3 a2A d3 |]
[|\
a3 A3 d2f edc | A3 c3 d2B e2A |\
d3 e3 f3 g3 | g2b c'2g a2A d3 |]

